X:1
T:Jennie Dang the Weaver [1]
M:C|
L:1/8
R:Reel
S:John Rook music manuscript collection (Waverton, Cumbria, 1840, p. 154)
Z:AK/Fiddler’s Companion
K:D
g|fA A/A/A ABAg|fA A/A/A f2 ed|dB B/B/B (B>cdB)|ABde f2 e>d:|
|:defd efge|defd g2fe|defd efge|f/g/a Ag f2 ed:|

